assets/images/abb_r.svg

<svg width="91" height="91" viewBox="0 0 91 91" fill="none" xmlns="http://www.w3.org/2000/svg">
<circle cx="45.5" cy="45.5" r="33.5" fill="#023869"/>
<circle cx="45.5" cy="45.5" r="39.5" stroke="#023869" stroke-opacity="0.12" stroke-width="12"/>
<path d="M36.0162 57H41.5602V48.936H45.8442L51.3162 57H57.7962L51.6402 48C54.8442 46.812 57.0402 44.256 57.0402 40.188C57.0402 37.74 56.2842 35.76 54.8802 34.356C53.2242 32.7 50.7402 31.8 47.5362 31.8H36.0162V57ZM41.5602 44.04V36.804H47.0682C49.7682 36.804 51.4242 38.028 51.4242 40.404C51.4242 42.6 49.8762 44.04 47.1762 44.04H41.5602Z" fill="white"/>
</svg>

<svg width="91" height="91" fill="none" xmlns="http://www.w3.org/2000/svg"><circle cx="45.5" cy="45.5" r="33.5" fill="#023869"/><circle cx="45.5" cy="45.5" r="39.5" stroke="#023869" stroke-opacity=".12" stroke-width="12"/><path d="M36.016 57h5.544v-8.064h4.284L51.316 57h6.48l-6.156-9c3.204-1.188 5.4-3.744 5.4-7.812 0-2.448-.756-4.428-2.16-5.832-1.656-1.656-4.14-2.556-7.344-2.556h-11.52V57zm5.544-12.96v-7.236h5.508c2.7 0 4.356 1.224 4.356 3.6 0 2.196-1.548 3.636-4.248 3.636H41.56z" fill="#fff"/></svg>
